X: 47
T: Gigg
%R: slip-jig
B: Stewart "A Select Collection of Airs, Jigs, Marches and Reels", ca.1784, p.21 #47
F: http://imslp.org/wiki/A_Select_Collection_of_Airs,_Jigs,_Marches_and_Reels_%28Various%29
Z: 2017 John Chambers <jc:trillian.mit.edu>
M: 9/8
L: 1/8
K: D
A |\
d>ef fdf ece | dBd Tc3 A2 F |\
G>AB BGB (B/A/B/c/d) | Adc d3 D2 :|
|: F/G/ |\
A>BA AFD G>AB | BeB Tc3 A2 e/f/ |\
g>af edc Bgf | edc d3 D2 :|
